packages/ui/src/lib/icons/svg/bluesky.svg

<svg width="100%" height="100%" viewBox="0 0 16 16" fill="none" xmlns="http://www.w3.org/2000/svg">
<path d="M4.31792 2.80775C5.77129 3.95163 7.33182 6.24174 7.95428 7.53846H8.0458C8.6683 6.24182 10.2287 3.95161 11.6822 2.80775C12.7576 1.96132 14.5 1.30641 14.5 3.39038C14.5 3.80658 14.2724 6.88666 14.1389 7.3867C13.6749 9.12518 11.984 9.56858 10.4799 9.30021C13.109 9.76933 13.7778 11.3232 12.3334 12.8771C9.5902 15.8282 8.39062 12.1366 8.0831 11.1907H7.9169C7.60951 12.1366 6.40996 15.8283 3.66659 12.8771C2.22217 11.3232 2.89097 9.76923 5.52014 9.30021C4.016 9.56858 2.32507 9.12517 1.86111 7.3867C1.72761 6.88661 1.5 3.80653 1.5 3.39038C1.5 1.30641 3.24256 1.96132 4.31792 2.80775Z" stroke="currentColor" stroke-width="1.5"/>
</svg>

<svg xmlns="http://www.w3.org/2000/svg" fill="none" viewBox="0 0 16 16" width="100%" height="100%"><path stroke="currentColor" stroke-width="1.5" d="M4.318 2.808c1.453 1.144 3.014 3.434 3.636 4.73h.092c.622-1.296 2.183-3.586 3.636-4.73 1.076-.847 2.818-1.502 2.818.582 0 .417-.228 3.497-.361 3.997-.464 1.738-2.155 2.182-3.66 1.913 2.63.47 3.299 2.023 1.854 3.577-2.743 2.951-3.942-.74-4.25-1.686h-.166c-.307.946-1.507 4.637-4.25 1.686C2.222 11.323 2.89 9.77 5.52 9.3c-1.504.269-3.195-.175-3.659-1.913-.133-.5-.361-3.58-.361-3.997 0-2.084 1.743-1.429 2.818-.582Z"/></svg>
